svgs/finanzen.svg

<?xml version="1.0" encoding="UTF-8" standalone="no"?>
<!-- Created with Inkscape (http://www.inkscape.org/) -->

<svg
   version="1.1"
   id="svg2"
   width="192"
   height="192"
   viewBox="0 0 192 192"
   sodipodi:docname="finanzen.png"
   xmlns:inkscape="http://www.inkscape.org/namespaces/inkscape"
   xmlns:sodipodi="http://sodipodi.sourceforge.net/DTD/sodipodi-0.dtd"
   xmlns="http://www.w3.org/2000/svg"
   xmlns:svg="http://www.w3.org/2000/svg">
  <defs
     id="defs6" />
  <sodipodi:namedview
     id="namedview4"
     pagecolor="#505050"
     bordercolor="#eeeeee"
     borderopacity="1"
     inkscape:showpageshadow="0"
     inkscape:pageopacity="0"
     inkscape:pagecheckerboard="0"
     inkscape:deskcolor="#505050"
     showgrid="false"
     showguides="true">
    <sodipodi:guide
       position="15.890945,96.654333"
       orientation="1,0"
       id="guide295"
       inkscape:locked="false" />
    <sodipodi:guide
       position="176.01558,143.95326"
       orientation="1,0"
       id="guide395"
       inkscape:locked="false" />
  </sodipodi:namedview>
  <g
     inkscape:groupmode="layer"
     inkscape:label="Image"
     id="g8">
    <path
       style="fill:none;stroke:#000000;stroke-width:12;stroke-linecap:round;stroke-linejoin:round;stroke-miterlimit:57.5;paint-order:stroke markers fill"
       d="M 22,105.28216 70.697,66.668 103.313,91.381786 169.62345,38.708583 170,38.363709"
       id="path293"
       sodipodi:nodetypes="ccccc" />
    <path
       style="fill:none;stroke:#000000;stroke-width:12;stroke-linecap:round;stroke-linejoin:round;stroke-miterlimit:57.5;paint-order:stroke markers fill"
       d="M 22,129.67718 70.697,88.035906 103.313,113.325 170,61.192175 V 159.48317 L 138.167,149.51795 103.313,159.86338 70.697,149.23261 49.075,160.66438 22,149.55019 Z"
       id="path297"
       sodipodi:nodetypes="ccccccccccc" />
    <path
       style="fill:none;stroke:#000000;stroke-width:12;stroke-linecap:round;stroke-linejoin:round;stroke-miterlimit:57.5;paint-order:stroke markers fill"
       d="m 49.075,108.688 v 51.61156"
       id="path397"
       sodipodi:nodetypes="cc" />
    <path
       style="fill:none;stroke:#000000;stroke-width:12;stroke-linecap:round;stroke-linejoin:round;stroke-miterlimit:57.5;paint-order:stroke markers fill"
       d="M 70.697,88.521212 V 149.484"
       id="path399"
       sodipodi:nodetypes="cc" />
    <path
       style="fill:none;stroke:#000000;stroke-width:12;stroke-linecap:round;stroke-linejoin:round;stroke-miterlimit:57.5;paint-order:stroke markers fill"
       d="m 103.313,111.907 v 44.00197"
       id="path401"
       sodipodi:nodetypes="cc" />
    <path
       style="fill:none;stroke:#000000;stroke-width:12;stroke-linecap:round;stroke-linejoin:round;stroke-miterlimit:57.5;paint-order:stroke markers fill"
       d="M 138.167,86.647833 V 148.6291"
       id="path403"
       sodipodi:nodetypes="cc" />
  </g>
</svg>

<svg width="192" height="192" xmlns="http://www.w3.org/2000/svg"><path style="fill:none;stroke:#000;stroke-width:12;stroke-linecap:round;stroke-linejoin:round;stroke-miterlimit:57.5;paint-order:stroke markers fill" d="m22 105.282 48.697-38.614 32.616 24.714 66.31-52.673.377-.345"/><path style="fill:none;stroke:#000;stroke-width:12;stroke-linecap:round;stroke-linejoin:round;stroke-miterlimit:57.5;paint-order:stroke markers fill" d="m22 129.677 48.697-41.641 32.616 25.289L170 61.192v98.291l-31.833-9.965-34.854 10.345-32.616-10.63-21.622 11.431L22 149.55ZM49.075 108.688V160.3M70.697 88.521v60.963M103.313 111.907v44.002M138.167 86.648v61.981"/></svg>
